X:499
T:Mambruno fue a la guerra (CT 116)
R:Xiraldilla
C:Tradicional
S:Msica Tradicional Asturiana, (C) Tello & Tito. Asturies, 2001.
S:http://pagina.de/MusTradAst <telloytito@asturies.org>
N:Cancin de Corro de Nias, transcrita en Llanuces,ayuntamiento de Quirs.
A:Asturies
O:Llanuces (Quirs)
Z:Cancioneru de Torner 116
M:2/4
L:1/8
Q:1/4=120
K:C
g2
||:dB ce|dd g2|dB ce|d2 zG|
BB BB|c2 AA/A/|AA/A/ AG/A/|B2 GG|
BB Bc|e2 ee|dc BA|[1 G2 g2:|[2 G2||
W:En Beln naci un nio,
W:en Beln naci ya
W:y al cabo de tres das
W:le van a bautizar.
W:
W:Y el cura les pregunta
W:cmo se ha de llamar
W:y el padrino responde:
W:Mambruno se ha llamar.
W:
W:Mambruno fue la guerra,
W:no s cuando vendr,
W:si vendr por la Pascua
W:o por la Trinid.
W:
W:
W:La Trinid ya vino
W:Mambr no viene ya.
W:Se suben a una torre
W:por ver si vena ya.
W:
W:Vieron venir un paje:
W:Qu noticias traer
W:-Las noticias que traigo
W:malas son de contar:
W:
W:que Mambruno se ha muerto.
W:Le llevan a enterrar
W:entre cuatro oficiales
W:en caja de cristal.
W:
W:
W:Enriba de la caja
W:cuatro palombas van
W:cantando el po-po
W:cantando el po-pan.
W:
